src/renderer/assets/svg/icon-settings.svg

<svg id="settings_icon" width="30" height="30" viewBox="0 0 30 30" fill="none" xmlns="http://www.w3.org/2000/svg">
<path fill-rule="evenodd" clip-rule="evenodd" d="M24.3778 15C24.3778 15.425 24.3403 15.825 24.2903 16.225L26.9278 18.2875C27.1653 18.475 27.2278 18.8125 27.0778 19.0875L24.5778 23.4125C24.4278 23.6875 24.1028 23.8 23.8153 23.6875L20.7028 22.4375C20.0528 22.925 19.3528 23.35 18.5903 23.6625L18.1153 26.975C18.0778 27.275 17.8153 27.5 17.5028 27.5H12.5028C12.1903 27.5 11.9278 27.275 11.8903 26.975L11.4153 23.6625C10.6528 23.35 9.95279 22.9375 9.30279 22.4375L6.19029 23.6875C5.91529 23.7875 5.57779 23.6875 5.42779 23.4125L2.92779 19.0875C2.77779 18.8125 2.84029 18.475 3.07779 18.2875L5.71529 16.225C5.66529 15.825 5.62779 15.4125 5.62779 15C5.62779 14.5875 5.66529 14.175 5.71529 13.775L3.07779 11.7125C2.84029 11.525 2.76529 11.1875 2.92779 10.9125L5.42779 6.5875C5.57779 6.3125 5.90279 6.2 6.19029 6.3125L9.30279 7.5625C9.95279 7.075 10.6528 6.65 11.4153 6.3375L11.8903 3.025C11.9278 2.725 12.1903 2.5 12.5028 2.5H17.5028C17.8153 2.5 18.0778 2.725 18.1153 3.025L18.5903 6.3375C19.3528 6.65 20.0528 7.0625 20.7028 7.5625L23.8153 6.3125C24.0903 6.2125 24.4278 6.3125 24.5778 6.5875L27.0778 10.9125C27.2278 11.1875 27.1653 11.525 26.9278 11.7125L24.2903 13.775C24.3403 14.175 24.3778 14.575 24.3778 15ZM10.6278 15C10.6278 17.4125 12.5903 19.375 15.0028 19.375C17.4153 19.375 19.3778 17.4125 19.3778 15C19.3778 12.5875 17.4153 10.625 15.0028 10.625C12.5903 10.625 10.6278 12.5875 10.6278 15Z" fill="#50E3C2"/>
</svg>

<svg xmlns="http://www.w3.org/2000/svg" width="30" height="30" fill="none" viewBox="0 0 30 30"><path fill="#50E3C2" fill-rule="evenodd" d="M24.378 15c0 .425-.038.825-.088 1.225l2.638 2.063a.63.63 0 0 1 .15.8l-2.5 4.325a.61.61 0 0 1-.763.274l-3.112-1.25a9.6 9.6 0 0 1-2.113 1.226l-.475 3.312a.61.61 0 0 1-.612.525h-5a.61.61 0 0 1-.613-.525l-.475-3.312a9.133 9.133 0 0 1-2.112-1.226l-3.113 1.25c-.275.1-.612 0-.762-.274l-2.5-4.326a.63.63 0 0 1 .15-.8l2.637-2.062A9.92 9.92 0 0 1 5.628 15c0-.412.037-.825.087-1.225l-2.637-2.062a.616.616 0 0 1-.15-.8l2.5-4.325a.61.61 0 0 1 .762-.276l3.113 1.25a9.604 9.604 0 0 1 2.112-1.224l.475-3.313a.61.61 0 0 1 .613-.525h5a.61.61 0 0 1 .612.525l.475 3.313a9.133 9.133 0 0 1 2.113 1.225l3.112-1.25c.275-.1.613 0 .763.275l2.5 4.325a.63.63 0 0 1-.15.8l-2.638 2.062c.05.4.088.8.088 1.225m-13.75 0a4.38 4.38 0 0 0 4.375 4.375A4.38 4.38 0 0 0 19.378 15a4.38 4.38 0 0 0-4.375-4.375A4.38 4.38 0 0 0 10.628 15" clip-rule="evenodd"/></svg>
